X:1
T:Title
%%score [ ( 1 2 ) ( 3 4 ) ] { ( 5 6 ) | ( 7 8 ) }
L:1/8
Q:1/4=120
M:4/4
K:E
V:1 treble nm="Midi_74"
V:2 treble 
V:3 bass nm="Midi_74"
V:4 bass 
V:5 treble nm="Org."
V:6 treble 
V:7 bass 
V:8 bass 
V:1
 G8 |"^Double counterpoint." F4 B4 | E8 || c8 | B4 e4 | A4 A4 | G8 || B8 | B4 B4 | B8 || A8 | %11
 A4 G4 |"^William Henry Havergal\n(1793-1870)" F4 F4 | E8 |] %14
V:2
 E8 | E4 D4 | E8 || E8 | D4 E4 | E4 D4 | E8 || G8 | F4 D4 | E8 || E8 | D4 E4 | E4 D4 | E8 |] %14
V:3
 B,8 | A,4 A,4 | G,8 || A,8 | B,4 B,4 | C4 B,4 | B,8 || B,8 | B,4 B,4 | G,8 || A,8 | B,4 B,4 | %12
 C4 (B,2 A,2) | G,8 |] %14
V:4
 E,8 | E,4 E,4 | E,8 || A,8 | A,4 G,4 | F,4 B,,4 | E,8 || E,8 | D,4 G,4 | C,8 || C,8 | B,,4 E,4 | %12
 A,,4 B,,4 | E,8 |] %14
V:5
 G8 | F4 B4 | E8 || [Ac]8 | B4 e4 | A4 A4 | G8 || B8 | B4 B4 | B8 || A8 | A4 G4 | F4 F4 | E8 |] %14
V:6
 E8 | E4 D4 | E8 || E8 | D4 ([EB]4 | E4) [B,D]4 | [B,E]8 || [EG]8 | F4 D4 | E8 || E8 | D4 E4 | %12
 E4 D4 | E8 |] %14
V:7
 B,8 | A,4 A,4 | G,8 || x8 | x8 | x8 | x8 || x8 | x8 | x8 || A,8 | B,4 B,4 | C4 B,2 A,2 | G,8 |] %14
V:8
 E,8 | E,4 E,4 | E,8 || A,8 | A,4 G,4 | F,4 B,,4 | E,8 || E,8 | D,4 G,4 | C,8 || C,8 | B,,4 E,4 | %12
 A,,4 B,,4 | E,8 |] %14

